X: 40998
T: Trip To Falsterbo
R: three-two
M: 3/2
K: Gmajor
G>D DD Gd|A>f dB AB|GE/G/ cB AG|Ad dB BA|
GD/G/ BG/B/ dB|A>f g/f/d/B/ AF|GE/G/ Bc B/G/E/G/|AF FG G2:|
BG dB ad|be c'b ge|f>g fd BA|A>B A/G/F/A/ G2|
BG/B/ dB ed|fg/a/ ge dB|A>B c/B/A/G/ AF|FG G2 z2:|

